NotoEmoji/1f1f3-1f1e6.svg

<svg xmlns="http://www.w3.org/2000/svg" viewBox="0 0 36 36"><path fill="#009543" d="M1.067 29.701C1.798 30.495 2.836 31 4 31h28c2.209 0 4-1.791 4-4V9c0-1.018-.393-1.937-1.019-2.643L1.067 29.701z"/><path fill="#003580" d="M34.933 6.299C34.202 5.505 33.164 5 32 5H4C1.791 5 0 6.791 0 9v18c0 1.018.393 1.937 1.019 2.643L34.933 6.299z"/><path fill="#FFF" d="M36 9c0-2.209-1.791-4-4-4h-.664L0 26.942V27c0 2.209 1.791 4 4 4h.664L36 9.059V9z"/><path fill="#D20F34" d="M32.984 5.136L.175 28.108c.399 1.377 1.506 2.447 2.912 2.777L35.843 7.949c-.378-1.382-1.468-2.459-2.859-2.813z"/><path fill="#FFCE00" d="M8 8l.809 1.981L10.5 8.67l-.29 2.12 2.12-.29-1.311 1.691L13 13l-1.981.809L12.33 15.5l-2.12-.29.29 2.12-1.691-1.311L8 18l-.809-1.981L5.5 17.33l.29-2.12-2.12.29 1.311-1.691L3 13l1.981-.809L3.67 10.5l2.12.29-.29-2.12 1.691 1.311z"/><circle fill="#003580" cx="8" cy="13" r="3.175"/><circle fill="#FFCE00" cx="8" cy="13" r="2.467"/></svg>

<svg viewBox="0 0 36 36" xmlns="http://www.w3.org/2000/svg"><path d="m1.07 29.7c.73.8 1.77 1.3 2.93 1.3h28c2.21 0 4-1.79 4-4v-18c0-1.02-.39-1.94-1.02-2.64z" fill="#009543"/><path d="m34.93 6.3c-.73-.79-1.77-1.3-2.93-1.3h-28c-2.21 0-4 1.79-4 4v18c0 1.02.39 1.94 1.02 2.64z" fill="#003580"/><path d="m36 9c0-2.21-1.79-4-4-4h-.66l-31.34 21.94v.06c0 2.21 1.79 4 4 4h.66l31.34-21.94z" fill="#fff"/><path d="m32.98 5.14-32.8 22.97c.4 1.38 1.51 2.45 2.91 2.78l32.75-22.94c-.38-1.38-1.47-2.46-2.86-2.81z" fill="#d20f34"/><path d="m8 8 .81 1.98 1.69-1.31-.29 2.12 2.12-.29-1.31 1.69 1.98.81-1.98.81 1.31 1.69-2.12-.29.29 2.12-1.69-1.31-.81 1.98-.81-1.98-1.69 1.31.29-2.12-2.12.29 1.31-1.69-1.98-.81 1.98-.81-1.31-1.69 2.12.29-.29-2.12 1.69 1.31z" fill="#ffce00"/><circle cx="8" cy="13" fill="#003580" r="3.18"/><circle cx="8" cy="13" fill="#ffce00" r="2.47"/></svg>
